src/pos-icons/file-cloud.svg

<svg height="24" viewBox="0 0 24 24" width="24" xmlns="http://www.w3.org/2000/svg"><path d="m13 9h5.5l-5.5-5.5zm-7-7h8l6 6v12a2 2 0 0 1 -2 2h-12c-1.11 0-2-.9-2-2v-16c0-1.11.89-2 2-2m9.68 13c-.34-1.7-1.86-3-3.68-3-1.45 0-2.7.82-3.32 2-1.51.18-2.68 1.45-2.68 3a3 3 0 0 0 3 3h6.5a2.5 2.5 0 0 0 2.5-2.5c0-1.32-1.03-2.39-2.32-2.5z"/></svg>

<?xml version="1.0" encoding="UTF-8"?><!DOCTYPE svg PUBLIC "-//W3C//DTD SVG 1.1//EN" "http://www.w3.org/Graphics/SVG/1.1/DTD/svg11.dtd"><svg xmlns="http://www.w3.org/2000/svg" xmlns:xlink="http://www.w3.org/1999/xlink" version="1.1" id="mdi-file-cloud" width="24" height="24" viewBox="0 0 24 24"><path d="M13,9H18.5L13,3.5V9M6,2H14L20,8V20A2,2 0 0,1 18,22H6C4.89,22 4,21.1 4,20V4C4,2.89 4.89,2 6,2M15.68,15C15.34,13.3 13.82,12 12,12C10.55,12 9.3,12.82 8.68,14C7.17,14.18 6,15.45 6,17A3,3 0 0,0 9,20H15.5A2.5,2.5 0 0,0 18,17.5C18,16.18 16.97,15.11 15.68,15Z" /></svg>
